Origami/32x32/apps/teeworlds.svg

<svg width="32" height="32" version="1.1" viewBox="0 0 32 32" xmlns="http://www.w3.org/2000/svg">
 <path d="m27.599999 28.2455c-0.0025 2.0545-0.510722 2.739586-6.970433 2.739585-1.836413 0-4.071844 0.161271-5.248728-0.57679-1.111255-0.696902-0.710451-1.719666-0.710452-2.760528 0-2.143198 2.099835-3.647767 5.670249-3.647767 3.570415 0 7.26203 2.1 7.259364 4.2455z" style="opacity:.2"/>
 <path d="m27.599999 27.2455c-0.0025 2.0545-0.510722 2.739586-6.970433 2.739585-1.836413 0-4.071844 0.161271-5.248728-0.57679-1.111255-0.696902-0.710451-1.719666-0.710452-2.760528 0-2.143198 2.099835-3.647767 5.670249-3.647767 3.570415 0 7.26203 2.1 7.259364 4.2455z" style="fill:#d48003"/>
 <path d="m16 2.9999999a13 13 0 0 0 -13 13 13 13 0 0 0 13 13 13 13 0 0 0 13 -13 13 13 0 0 0 -13 -13z" style="opacity:.2"/>
 <path d="m16 1.9999999a13 13 0 0 0 -13 13 13 13 0 0 0 13 13 13 13 0 0 0 13 -13 13 13 0 0 0 -13 -13z" style="fill:#fdc33b"/>
 <ellipse cx="14" cy="14" rx="2" ry="3" style="opacity:.1"/>
 <path d="m16.999999 28.2455c-0.0025 2.0545-0.510723 2.739586-6.970434 2.739585-1.8364116 0-4.0718428 0.161271-5.2487275-0.57679-1.1112545-0.696902-0.7104515-1.719666-0.7104517-2.760528-3e-7 -2.143198 2.0998355-3.647767 5.6702486-3.647767 3.5704146 0 7.2620296 2.1 7.2593646 4.2455z" style="opacity:.2"/>
 <path d="m16.999999 27.2455c-0.0025 2.0545-0.510723 2.739586-6.970434 2.739585-1.8364116 0-4.0718428 0.161271-5.2487275-0.57679-1.1112545-0.696902-0.7104515-1.719666-0.7104517-2.760528-3e-7 -2.143198 2.0998355-3.647767 5.6702486-3.647767 3.5704146 0 7.2620296 2.1 7.2593646 4.2455z" style="fill:#d48003"/>
 <ellipse cx="14" cy="13" rx="2" ry="3" style="fill:#414141"/>
 <ellipse cx="20" cy="14" rx="2" ry="3" style="opacity:.1"/>
 <ellipse cx="20" cy="13" rx="2" ry="3" style="fill:#414141"/>
 <path d="M 16 2 A 13 13 0 0 0 3 15 A 13 13 0 0 0 3.0214844 15.419922 A 13 13 0 0 1 16 3 A 13 13 0 0 1 28.978516 15.580078 A 13 13 0 0 0 29 15 A 13 13 0 0 0 16 2 z" style="fill:#ffffff;opacity:.2"/>
</svg>

<svg xmlns="http://www.w3.org/2000/svg" width="32" height="32" version="1.1" viewBox="0 0 32 32">
 <path style="opacity:0.2" d="m 27.599999,28.2455 c -0.0025,2.0545 -0.510722,2.739586 -6.970433,2.739585 -1.836413,0 -4.071844,0.161271 -5.248728,-0.57679 -1.111255,-0.696902 -0.710451,-1.719666 -0.710452,-2.760528 0,-2.143198 2.099835,-3.647767 5.670249,-3.647767 3.570415,0 7.26203,2.1 7.259364,4.2455 z"/>
 <path style="fill:#d48003" d="m 27.599999,27.2455 c -0.0025,2.0545 -0.510722,2.739586 -6.970433,2.739585 -1.836413,0 -4.071844,0.161271 -5.248728,-0.57679 -1.111255,-0.696902 -0.710451,-1.719666 -0.710452,-2.760528 0,-2.143198 2.099835,-3.647767 5.670249,-3.647767 3.570415,0 7.26203,2.1 7.259364,4.2455 z"/>
 <path style="opacity:0.2" d="M 16,2.9999999 A 13,13 0 0 0 3.0000001,16 13,13 0 0 0 16,29 13,13 0 0 0 29,16 13,13 0 0 0 16,2.9999999 Z"/>
 <path style="fill:#fdc33b" d="M 16,1.9999999 A 13,13 0 0 0 3.0000001,15 13,13 0 0 0 16,28 13,13 0 0 0 29,15 13,13 0 0 0 16,1.9999999 Z"/>
 <ellipse style="opacity:0.1" cx="14" cy="14" rx="2" ry="3"/>
 <path style="opacity:0.2" d="m 16.999999,28.2455 c -0.0025,2.0545 -0.510723,2.739586 -6.970434,2.739585 -1.8364116,0 -4.0718428,0.161271 -5.2487275,-0.57679 C 3.669583,29.711393 4.070386,28.688629 4.0703858,27.647767 4.0703855,25.504569 6.1702213,24 9.7406344,24 c 3.5704146,0 7.2620296,2.1 7.2593646,4.2455 z"/>
 <path style="fill:#d48003" d="m 16.999999,27.2455 c -0.0025,2.0545 -0.510723,2.739586 -6.970434,2.739585 -1.8364116,0 -4.0718428,0.161271 -5.2487275,-0.57679 C 3.669583,28.711393 4.070386,27.688629 4.0703858,26.647767 4.0703855,24.504569 6.1702213,23 9.7406344,23 c 3.5704146,0 7.2620296,2.1 7.2593646,4.2455 z"/>
 <ellipse style="fill:#414141" cx="14" cy="13" rx="2" ry="3"/>
 <ellipse style="opacity:0.1" cx="20" cy="14" rx="2" ry="3"/>
 <ellipse style="fill:#414141" cx="20" cy="13" rx="2" ry="3"/>
 <path style="opacity:0.2;fill:#ffffff" d="M 16 2 A 13 13 0 0 0 3 15 A 13 13 0 0 0 3.0214844 15.419922 A 13 13 0 0 1 16 3 A 13 13 0 0 1 28.978516 15.580078 A 13 13 0 0 0 29 15 A 13 13 0 0 0 16 2 z"/>
</svg>
